images/logo.svg

<svg width="130" height="60" viewBox="0 0 130 60" fill="none" xmlns="http://www.w3.org/2000/svg">
<g clip-path="url(#clip0_157884_2455)">
<path d="M4.95672 0H0V35.7986H4.95672V22.5177C4.95672 20.2709 5.51557 18.4984 6.63326 17.2502C7.75095 16.002 9.2817 15.353 11.1769 15.353C12.8049 15.353 14.1655 15.9521 15.2589 17.1004C16.3523 18.2738 16.9112 19.7466 16.9112 21.5191V35.8236H21.8922V21.5191C21.8922 18.2238 20.9932 15.6276 19.1951 13.6804C17.3971 11.7332 15.0402 10.7596 12.1731 10.7596C11.347 10.7596 10.5209 10.8594 9.71906 11.0841C8.89294 11.3088 8.2369 11.5584 7.70235 11.833C7.16781 12.1076 6.65756 12.4072 6.1959 12.7567C5.73424 13.1062 5.41838 13.3558 5.27259 13.5056C5.1268 13.6554 5.00532 13.7552 4.95672 13.8301V0Z" fill="#F0145A"/>
<path d="M32.9727 0H27.8628V35.7689H32.9727V0Z" fill="white"/>
<path d="M63.1115 25.2935L63.367 22.7386C63.367 19.315 62.2428 16.4535 59.9434 14.1541C57.6439 11.8546 54.7824 10.7305 51.3588 10.7305C47.9352 10.7305 44.9715 11.9568 42.5188 14.4096C40.0661 16.8623 38.8397 19.7749 38.8397 23.2496C38.8397 26.8265 40.1172 29.8924 42.621 32.4473C45.1248 35.0022 48.1396 36.2797 51.6143 36.2797C52.9429 36.2797 54.1692 36.0753 55.3956 35.7176C56.622 35.3088 57.6439 34.9 58.3593 34.4912C59.1258 34.0313 59.8923 33.5204 60.5565 32.9583C61.2208 32.3962 61.6807 31.9874 61.8851 31.7319C62.0895 31.4764 62.2428 31.3231 62.345 31.1698L59.0236 27.8484L58.2571 28.8193C57.7461 29.4325 56.8775 30.0457 55.6511 30.7099C54.3736 31.3742 53.0451 31.6808 51.6143 31.6808C49.6215 31.6808 47.9352 31.0676 46.5045 29.7902C45.0737 28.5127 44.2051 27.0309 43.9496 25.2935H63.1115ZM51.3588 15.0738C53.2495 15.0738 54.7824 15.6359 56.0599 16.709C57.2862 17.8331 58.0527 19.2128 58.3593 20.9501H44.154C44.6138 19.2128 45.4314 17.8331 46.7089 16.709C47.9352 15.6359 49.5193 15.0738 51.3588 15.0738Z" fill="white"/>
<path d="M86.9429 34.2868C86.9429 36.5351 86.2786 38.3747 84.899 39.8054C83.5704 41.1851 81.8842 41.9005 79.7891 41.9005C78.8694 41.9005 77.9496 41.7472 77.0809 41.4917C76.2122 41.2362 75.548 40.9296 74.9859 40.5719C74.4238 40.2142 73.9128 39.8565 73.4018 39.3967C72.9419 38.9368 72.6354 38.6302 72.4821 38.4769C72.3288 38.3236 72.2266 38.1703 72.1244 38.0681L68.803 41.3895L69.2118 41.9005C69.4673 42.2582 69.9271 42.718 70.5403 43.229C71.1535 43.6889 71.8689 44.1999 72.6865 44.7109C73.504 45.1708 74.526 45.5796 75.8035 45.9372C77.0809 46.2949 78.4095 46.4993 79.7891 46.4993C83.2638 46.4993 86.1253 45.3241 88.5269 42.9735C90.8775 40.5719 92.0527 37.7104 92.0527 34.2357V11.2415H86.9429V13.7964L86.0742 13.0299C85.5121 12.5189 84.6435 12.0079 83.4171 11.4969C82.1907 10.986 80.8622 10.7305 79.5336 10.7305C76.4166 10.7305 73.7595 11.9057 71.4601 14.3074C69.1607 16.709 68.0365 19.5705 68.0365 22.9941C68.0365 26.4177 69.1607 29.2792 71.4601 31.6808C73.7595 34.0824 76.4166 35.2577 79.5336 35.2577C80.4023 35.2577 81.2199 35.1555 82.0885 34.9511C82.9061 34.6956 83.5704 34.4401 84.1325 34.1846C84.6946 33.9291 85.2055 33.6225 85.6654 33.2648C86.1253 32.9072 86.483 32.6517 86.5852 32.5495L86.9429 32.1918V34.2868ZM73.1463 22.9941C73.1463 20.8479 73.8106 19.0595 75.1903 17.5777C76.5699 16.0958 78.2051 15.3293 80.0446 15.3293C81.8842 15.3293 83.5193 16.0958 84.899 17.5777C86.2275 19.0595 86.9429 20.8479 86.9429 22.9941C86.9429 25.1402 86.2275 26.9287 84.899 28.4105C83.5193 29.8924 81.8842 30.6588 80.0446 30.6588C78.2051 30.6588 76.5699 29.8924 75.1903 28.4105C73.8106 26.9287 73.1463 25.1402 73.1463 22.9941Z" fill="white"/>
<path d="M118.724 35.7687V19.9282C118.724 17.3222 117.753 15.1249 115.863 13.3876C113.972 11.5991 111.519 10.7305 108.504 10.7305C107.329 10.7305 106.154 10.8838 105.03 11.1904C103.906 11.548 102.986 11.9057 102.322 12.3145C101.657 12.7233 100.993 13.1832 100.38 13.7453C99.7666 14.2563 99.409 14.6139 99.2046 14.8183C99.0513 15.0227 98.898 15.176 98.7958 15.3293L102.117 18.6507L102.781 17.782C103.19 17.22 103.906 16.709 104.979 16.1469C106.052 15.5848 107.227 15.3293 108.504 15.3293C109.986 15.3293 111.213 15.7892 112.184 16.6579C113.154 17.5266 113.614 18.6507 113.614 19.9282L104.672 21.4611C102.475 21.8188 100.686 22.6875 99.46 24.0672C98.1826 25.4468 97.5183 27.1331 97.5183 29.1259C97.5183 31.0165 98.3359 32.6517 99.971 34.0824C101.657 35.5643 103.701 36.2797 106.205 36.2797C107.074 36.2797 107.891 36.1775 108.709 35.922C109.578 35.7176 110.242 35.4621 110.804 35.2066C111.366 34.9511 111.877 34.6445 112.337 34.2868C112.797 33.9291 113.103 33.6736 113.308 33.5715C113.461 33.4182 113.563 33.2649 113.614 33.2138V35.7687H118.724ZM106.972 31.6808C105.643 31.6808 104.57 31.3742 103.803 30.761C102.986 30.1479 102.628 29.4325 102.628 28.6149C102.628 27.7462 102.884 26.9798 103.446 26.4177C104.008 25.8556 104.774 25.4468 105.694 25.2935L113.614 24.0161V24.527C113.614 26.8265 113.052 28.5638 111.877 29.8413C110.702 31.0676 109.067 31.6808 106.972 31.6808Z" fill="white"/>
<path d="M130 0H124.89V35.7689H130V0Z" fill="white"/>
<path d="M0 53.1185H1.59915V58.7253H5.06396V60.0283H0V53.1185Z" fill="white"/>
<path d="M15.5016 58.5477H12.2934L11.6814 60.0283H10.0428L13.1226 53.1185H14.702L17.7917 60.0283H16.1136L15.5016 58.5477ZM14.9982 57.3335L13.9025 54.688L12.8067 57.3335H14.9982Z" fill="white"/>
<path d="M33.5121 53.1185L31.2516 60.0283H29.534L28.0138 55.3494L26.4443 60.0283H24.7366L22.4662 53.1185H24.1245L25.6842 57.9751L27.313 53.1185H28.7937L30.3731 58.0146L31.9821 53.1185H33.5121Z" fill="white"/>
<path d="M50.5232 60.1468C49.819 60.1468 49.1807 59.9954 48.6082 59.6927C48.0422 59.3834 47.5947 58.959 47.2657 58.4193C46.9432 57.8731 46.782 57.2578 46.782 56.5734C46.782 55.889 46.9432 55.277 47.2657 54.7373C47.5947 54.1911 48.0422 53.7667 48.6082 53.464C49.1807 53.1547 49.8223 53 50.5331 53C51.1319 53 51.6716 53.1053 52.152 53.3159C52.6389 53.5265 53.047 53.8292 53.376 54.224L52.3494 55.1717C51.8821 54.6321 51.303 54.3622 50.612 54.3622C50.1843 54.3622 49.8026 54.4577 49.467 54.6485C49.1313 54.8328 48.8681 55.0927 48.6773 55.4283C48.493 55.764 48.4009 56.1456 48.4009 56.5734C48.4009 57.0012 48.493 57.3828 48.6773 57.7185C48.8681 58.0541 49.1313 58.3173 49.467 58.5082C49.8026 58.6924 50.1843 58.7846 50.612 58.7846C51.303 58.7846 51.8821 58.5115 52.3494 57.9653L53.376 58.9129C53.047 59.3143 52.6389 59.6203 52.152 59.8309C51.665 60.0415 51.1221 60.1468 50.5232 60.1468Z" fill="white"/>
<path d="M62.5933 60.1468C61.876 60.1468 61.2278 59.9922 60.6487 59.6829C60.0761 59.3736 59.6253 58.9491 59.2963 58.4095C58.9738 57.8632 58.8126 57.2512 58.8126 56.5734C58.8126 55.8956 58.9738 55.2868 59.2963 54.7472C59.6253 54.201 60.0761 53.7733 60.6487 53.464C61.2278 53.1547 61.876 53 62.5933 53C63.3106 53 63.9555 53.1547 64.5281 53.464C65.1006 53.7733 65.5514 54.201 65.8804 54.7472C66.2095 55.2868 66.374 55.8956 66.374 56.5734C66.374 57.2512 66.2095 57.8632 65.8804 58.4095C65.5514 58.9491 65.1006 59.3736 64.5281 59.6829C63.9555 59.9922 63.3106 60.1468 62.5933 60.1468ZM62.5933 58.7846C63.0013 58.7846 63.3698 58.6924 63.6989 58.5082C64.0279 58.3173 64.2846 58.0541 64.4688 57.7185C64.6597 57.3828 64.7551 57.0012 64.7551 56.5734C64.7551 56.1456 64.6597 55.764 64.4688 55.4283C64.2846 55.0927 64.0279 54.8328 63.6989 54.6485C63.3698 54.4577 63.0013 54.3622 62.5933 54.3622C62.1853 54.3622 61.8168 54.4577 61.4877 54.6485C61.1587 54.8328 60.8987 55.0927 60.7079 55.4283C60.5236 55.764 60.4315 56.1456 60.4315 56.5734C60.4315 57.0012 60.5236 57.3828 60.7079 57.7185C60.8987 58.0541 61.1587 58.3173 61.4877 58.5082C61.8168 58.6924 62.1853 58.7846 62.5933 58.7846Z" fill="white"/>
<path d="M78.7995 60.0283L78.7896 55.8824L76.7561 59.2979H76.0355L74.0119 55.9713V60.0283H72.5115V53.1185H73.8342L76.4205 57.4125L78.9673 53.1185H80.2802L80.2999 60.0283H78.7995Z" fill="white"/>
<path d="M89.8659 53.1185C90.478 53.1185 91.0077 53.2205 91.4552 53.4245C91.9093 53.6285 92.2581 53.918 92.5016 54.2931C92.7451 54.6682 92.8668 55.1125 92.8668 55.6258C92.8668 56.1325 92.7451 56.5767 92.5016 56.9584C92.2581 57.3335 91.9093 57.623 91.4552 57.8271C91.0077 58.0245 90.478 58.1232 89.8659 58.1232H88.4741V60.0283H86.8749V53.1185H89.8659ZM89.7771 56.8202C90.2575 56.8202 90.6227 56.7182 90.8728 56.5142C91.1229 56.3036 91.2479 56.0074 91.2479 55.6258C91.2479 55.2375 91.1229 54.9414 90.8728 54.7373C90.6227 54.5268 90.2575 54.4215 89.7771 54.4215H88.4741V56.8202H89.7771Z" fill="white"/>
<path d="M103.148 58.5477H99.9396L99.3276 60.0283H97.6889L100.769 53.1185H102.348L105.438 60.0283H103.76L103.148 58.5477ZM102.644 57.3335L101.549 54.688L100.453 57.3335H102.644Z" fill="white"/>
<path d="M117.428 53.1185V60.0283H116.115L112.67 55.8331V60.0283H111.09V53.1185H112.413L115.848 57.3137V53.1185H117.428Z" fill="white"/>
<path d="M127.315 57.5803V60.0283H125.716V57.5605L123.041 53.1185H124.739L126.585 56.1884L128.43 53.1185H130L127.315 57.5803Z" fill="white"/>
</g>
<defs>
<clipPath id="clip0_157884_2455">
<rect width="130" height="60" fill="white"/>
</clipPath>
</defs>
</svg>

<svg xmlns="http://www.w3.org/2000/svg" width="130" height="60" fill="none"><g clip-path="url(#a)"><path fill="#F0145A" d="M4.957 0H0v35.799h4.957V22.518c0-2.247.559-4.02 1.676-5.268 1.118-1.248 2.649-1.897 4.544-1.897 1.628 0 2.989.6 4.082 1.747 1.093 1.174 1.652 2.647 1.652 4.42v14.304h4.981V21.519c0-3.295-.899-5.891-2.697-7.839-1.798-1.947-4.155-2.92-7.022-2.92-.826 0-1.652.1-2.454.324-.826.225-1.482.474-2.017.749-.534.275-1.044.574-1.506.924-.462.35-.778.599-.923.749-.146.15-.268.25-.316.324V0Z"/><path fill="#fff" d="M32.973 0h-5.11v35.769h5.11V0ZM63.111 25.294l.256-2.555c0-3.424-1.124-6.286-3.424-8.585-2.3-2.3-5.16-3.424-8.584-3.424-3.424 0-6.388 1.227-8.84 3.68-2.453 2.452-3.68 5.365-3.68 8.84 0 3.576 1.278 6.642 3.782 9.197 2.504 2.555 5.519 3.833 8.993 3.833 1.329 0 2.555-.205 3.782-.562 1.226-.41 2.248-.818 2.963-1.227.767-.46 1.533-.97 2.197-1.533.665-.562 1.125-.97 1.33-1.226.203-.256.357-.409.459-.562l-3.321-3.322-.767.971c-.51.614-1.38 1.227-2.606 1.89-1.277.665-2.606.972-4.037.972-1.992 0-3.679-.613-5.11-1.89-1.43-1.278-2.299-2.76-2.554-4.497H63.11ZM51.36 15.074c1.89 0 3.423.562 4.7 1.635 1.227 1.124 1.994 2.504 2.3 4.241H44.154c.46-1.737 1.277-3.117 2.555-4.241 1.226-1.073 2.81-1.635 4.65-1.635ZM86.943 34.287c0 2.248-.664 4.088-2.044 5.518-1.329 1.38-3.015 2.096-5.11 2.096-.92 0-1.84-.154-2.708-.41-.869-.255-1.533-.561-2.095-.92a11.553 11.553 0 0 1-1.584-1.174l-.92-.92c-.153-.153-.255-.307-.358-.409l-3.321 3.322.409.51c.255.358.715.818 1.328 1.329.613.46 1.329.97 2.146 1.482.818.46 1.84.869 3.117 1.226 1.278.358 2.606.562 3.986.562 3.475 0 6.336-1.175 8.738-3.526 2.35-2.401 3.526-5.263 3.526-8.737V11.242h-5.11v2.554l-.869-.766c-.562-.511-1.43-1.022-2.657-1.533a10.122 10.122 0 0 0-3.883-.767c-3.117 0-5.775 1.176-8.074 3.577-2.3 2.402-3.423 5.263-3.423 8.687 0 3.424 1.124 6.285 3.423 8.687 2.3 2.401 4.957 3.577 8.074 3.577.868 0 1.686-.102 2.554-.307a17.604 17.604 0 0 0 2.044-.766 7.622 7.622 0 0 0 1.533-.92c.46-.358.818-.613.92-.715l.358-.358v2.095ZM73.146 22.994c0-2.146.665-3.934 2.044-5.416 1.38-1.482 3.015-2.249 4.855-2.249 1.84 0 3.474.767 4.854 2.249 1.329 1.482 2.044 3.27 2.044 5.416 0 2.146-.715 3.935-2.044 5.416-1.38 1.482-3.015 2.249-4.854 2.249-1.84 0-3.475-.767-4.855-2.248-1.38-1.482-2.044-3.27-2.044-5.417ZM118.724 35.769v-15.84c0-2.607-.971-4.804-2.861-6.541-1.891-1.789-4.344-2.658-7.359-2.658-1.175 0-2.35.154-3.474.46-1.124.358-2.044.716-2.708 1.125-.665.408-1.329.868-1.942 1.43-.613.511-.971.869-1.175 1.073-.154.205-.307.358-.41.511l3.322 3.322.664-.869c.409-.562 1.125-1.073 2.198-1.635s2.248-.818 3.525-.818c1.482 0 2.709.46 3.68 1.329.97.869 1.43 1.993 1.43 3.27l-8.942 1.533c-2.197.358-3.986 1.227-5.212 2.606-1.277 1.38-1.942 3.066-1.942 5.059 0 1.89.818 3.526 2.453 4.956 1.686 1.482 3.73 2.198 6.234 2.198.869 0 1.686-.102 2.504-.358.869-.204 1.533-.46 2.095-.715a7.628 7.628 0 0 0 1.533-.92c.46-.358.766-.613.971-.715.153-.154.255-.307.306-.358v2.555h5.11Zm-11.752-4.088c-1.329 0-2.402-.307-3.169-.92-.817-.613-1.175-1.328-1.175-2.146 0-.869.256-1.635.818-2.197.562-.562 1.328-.971 2.248-1.124l7.92-1.278v.511c0 2.3-.562 4.037-1.737 5.314-1.175 1.227-2.81 1.84-4.905 1.84ZM130 0h-5.11v35.769H130V0ZM0 53.118h1.6v5.607h3.464v1.303H0v-6.91ZM15.502 58.548h-3.209l-.612 1.48h-1.638l3.08-6.91h1.579l3.09 6.91h-1.678l-.612-1.48Zm-.504-1.215-1.095-2.645-1.096 2.645h2.191ZM33.512 53.118l-2.26 6.91h-1.718l-1.52-4.679-1.57 4.68h-1.707l-2.27-6.91h1.658l1.56 4.856 1.628-4.857h1.48l1.58 4.897 1.61-4.897h1.53ZM50.523 60.147a4.033 4.033 0 0 1-1.915-.454 3.518 3.518 0 0 1-1.342-1.274 3.562 3.562 0 0 1-.484-1.846c0-.684.161-1.296.484-1.836.329-.546.776-.97 1.342-1.273.573-.31 1.214-.464 1.925-.464.599 0 1.139.105 1.619.316.487.21.895.513 1.224.908l-1.027.948c-.467-.54-1.046-.81-1.737-.81-.428 0-.81.096-1.145.286a2 2 0 0 0-.79.78 2.34 2.34 0 0 0-.276 1.145c0 .428.092.81.276 1.145.191.336.454.6.79.79a2.34 2.34 0 0 0 1.145.277c.691 0 1.27-.273 1.737-.82l1.027.948a3.2 3.2 0 0 1-1.224.918c-.487.21-1.03.316-1.629.316ZM62.593 60.147c-.717 0-1.365-.155-1.944-.464a3.5 3.5 0 0 1-1.353-1.273 3.543 3.543 0 0 1-.483-1.837c0-.677.16-1.286.483-1.826.33-.546.78-.974 1.353-1.283.579-.31 1.227-.464 1.944-.464.718 0 1.362.155 1.935.464a3.476 3.476 0 0 1 1.846 3.11c0 .677-.164 1.29-.494 1.836a3.5 3.5 0 0 1-1.352 1.273c-.573.31-1.217.464-1.935.464Zm0-1.362c.408 0 .777-.093 1.106-.277a2.02 2.02 0 0 0 .77-.79c.19-.335.286-.717.286-1.145 0-.427-.095-.809-.286-1.145a1.951 1.951 0 0 0-.77-.78 2.164 2.164 0 0 0-1.106-.286c-.408 0-.776.096-1.105.286a2.019 2.019 0 0 0-.78.78 2.34 2.34 0 0 0-.276 1.145c0 .428.092.81.276 1.145.19.336.45.6.78.79.329.184.697.277 1.105.277ZM78.8 60.028l-.01-4.146-2.034 3.416h-.72l-2.024-3.327v4.057h-1.5v-6.91h1.322l2.587 4.294 2.546-4.294h1.313l.02 6.91h-1.5ZM89.866 53.118c.612 0 1.142.102 1.59.306.453.205.802.494 1.046.87.243.374.365.819.365 1.332 0 .507-.122.95-.365 1.332-.244.376-.593.665-1.047.87-.447.197-.977.295-1.59.295h-1.39v1.905h-1.6v-6.91h2.99Zm-.089 3.702c.48 0 .846-.102 1.096-.306.25-.21.375-.507.375-.888 0-.389-.125-.685-.375-.889-.25-.21-.616-.316-1.096-.316h-1.303v2.4h1.303ZM103.148 58.548H99.94l-.612 1.48h-1.64l3.081-6.91h1.579l3.09 6.91h-1.678l-.612-1.48Zm-.504-1.215-1.095-2.645-1.096 2.645h2.191ZM117.428 53.118v6.91h-1.313l-3.445-4.195v4.195h-1.58v-6.91h1.323l3.435 4.196v-4.196h1.58ZM127.315 57.58v2.448h-1.599V57.56l-2.675-4.442h1.698l1.846 3.07 1.845-3.07H130l-2.685 4.462Z"/></g><defs><clipPath id="a"><path fill="#fff" d="M0 0h130v60H0z"/></clipPath></defs></svg>
